X: 920
T: Spring Creek Gal
C:Traditional Old-Time
B: jims roots
M:4/4
L:1/8
Q: 1/4=100
K:D
V:1 
%N:TablEdited by Wendy Anthony  20 Aug 2004
%Q:320
de |: "D"[fAD]a2 f abaf | (3efe d2 d2 e2 | [f2A2D2] fg fedB | "G"d2 B2 [B2G2] dB |
      "D"[A2D2] AB AAFF | [1 "D"(3EFE D2 D2 A2:| [2 "D"(3EFE D2 D2 DE||
      "D"F4 FEDE | F A2 B A2 DE | FEDF "A"A2 F2 | "D"(3EFE D2 D2 DE | E-F2 F- FEDE |
      "D"FA2 BA2 DE | FEDF "A"A2 F2 |[1 "D"(3EFE D2D2 DE:|[2 "D"(3EFE D2 D4|]
% abcbook-tune_id 6298c287a302fb36baeb76ba


% abcbook-boost 0
% abcbook-tablature 
% abcbook-transpose 
% abcbook-lastupdated 1654178440783
% abcbook-soundfonts 
% abcbook-repeats 1


